X:809
T:Poor Boy
C:Vera Matson / Elvis Presley
L:1/4
M:2/2
R:Reel
S:Colin Hume's website,  colinhume.com  - chords can also be printed below the stave.
Q:1/2=112
%%MIDI ratio 3 1
K:D
A | "D"F>F FF | FD EF | "G"G>G GG | G4 | "A7"A2 A>A | AA3 | "D"F2 F>F | F4 |
"G"zB B>c | dd- dB | "D"BA AF | A3F | "E7"E2 ^G2 | B2 d2 | "A"c2 A>A | "A7"Ad dd |
"G"d2 B2 | d2 B2 | "D"AF- F2 | zA B=c | "A7"^c2 E2 | zE FG | "D"F2 F>G | "D7"Ad dd |
"G"d2 e2 | d2 B2 | "D"AF- F2 | zA B=c | "A7"^cB- BA | GF- FE | "D"D4 | z3 |]

